X: 1
T: Polska efter B\aatsman D\"ack (Storpolskan)
O: Sweden
R: 16th-note polska, sl\"angpolska
S: Fiddle Hell Online 2020-11-05 handout from Bronwyn Bird
S: Fiddle Hell Online 2022-4-2 handout for Bronwyn Bird's Swedish Jam
Z: 2020 John Chambers <jc:trillian.mit.edu>
M: 3/4
L: 1/16
K: G
|::: B4    D3G  B3B | d3B G3F/E/ D4  | E2C2 C2E2 E2A2 |   A2G2 AGFE D4    :|2 D8  z4   :|4 D8 z2 D2 ||
|::: G,3A, B,3C D3D | E4  F2EF   G3G | A3B  c2dc B2GB |1,3 A3F G2D2 B,2G2 :|2 AF3 G8   :|4 AF3 G7 G ||
|::: d4    B2GB d3d | ec3 c2Bc   e3e | dedB cdcA B2BG |1,3 A3F G2D2 B,2D2 :|2,4 A3F G8 :|
